assets/icon.svg

<?xml version="1.0" encoding="UTF-8" standalone="no"?>
<svg
   width="512"
   height="512"
   viewBox="0 0 512 512"
   fill="none"
   version="1.1"
   id="svg35"
   sodipodi:docname="icon.svg"
   inkscape:version="1.4.3 (0d15f75042, 2025-12-25)"
   inkscape:export-filename="icon.png"
   inkscape:export-xdpi="96"
   inkscape:export-ydpi="96"
   xmlns:inkscape="http://www.inkscape.org/namespaces/inkscape"
   xmlns:sodipodi="http://sodipodi.sourceforge.net/DTD/sodipodi-0.dtd"
   xmlns="http://www.w3.org/2000/svg"
   xmlns:svg="http://www.w3.org/2000/svg">
  <sodipodi:namedview
     id="namedview35"
     pagecolor="#505050"
     bordercolor="#eeeeee"
     borderopacity="1"
     inkscape:showpageshadow="0"
     inkscape:pageopacity="0"
     inkscape:pagecheckerboard="0"
     inkscape:deskcolor="#505050"
     inkscape:zoom="1.321682"
     inkscape:cx="69.608271"
     inkscape:cy="120.67956"
     inkscape:window-width="2544"
     inkscape:window-height="1363"
     inkscape:window-x="35"
     inkscape:window-y="32"
     inkscape:window-maximized="0"
     inkscape:current-layer="svg35" />
  <mask
     id="mask0_4023_558"
     maskUnits="userSpaceOnUse"
     x="12"
     y="100"
     width="88"
     height="16">
    <path
       d="m 100,104 c 0,6.627 -5.3726,12 -12,12 H 24 c -6.6274,0 -12,-5.373 -12,-12 v -4 c 0,6.627 5.3726,12 12,12 h 64 c 6.6274,0 12,-5.373 12,-12 z"
       fill="#d9d9d9"
       id="path6" />
  </mask>
  <mask
     id="mask1_4023_558"
     maskUnits="userSpaceOnUse"
     x="77"
     y="27"
     width="21"
     height="36">
    <path
       d="m 97.4223,44.1501 c 0.3482,0.5122 0.3457,1.1859 -0.0063,1.6956 L 86.0175,62.3523 C 85.7375,62.7579 85.2761,63 84.7832,63 h -5.9804 c -1.1981,0 -1.9127,-1.3352 -1.2481,-2.3321 l 9.8906,-14.8358 c 0.3359,-0.5039 0.3359,-1.1603 0,-1.6642 L 78.0729,30.1094 C 77.1869,28.7803 78.1396,27 79.737,27 h 5.2334 c 0.4967,0 0.9613,0.2459 1.2405,0.6567 z"
       fill="#2779dd"
       id="path14" />
  </mask>
  <g
     id="g36"
     transform="scale(4)">
    <g
       clip-path="url(#clip0_4023_558)"
       id="g6">
      <rect
         x="62.0205"
         y="-52.425598"
         width="24"
         height="197"
         transform="rotate(30,62.0205,-52.4256)"
         fill="#9141ac"
         id="rect1" />
      <rect
         x="82.805099"
         y="-40.425598"
         width="18"
         height="197"
         transform="rotate(30,82.8051,-40.4256)"
         fill="#62a0ea"
         id="rect2" />
      <rect
         x="98.3936"
         y="-31.4256"
         width="18"
         height="197"
         transform="rotate(30,98.3936,-31.4256)"
         fill="#57e389"
         id="rect3" />
      <rect
         x="113.982"
         y="-22.4256"
         width="18"
         height="197"
         transform="rotate(30,113.982,-22.4256)"
         fill="#f5c211"
         id="rect4" />
      <rect
         x="129.57001"
         y="-13.4256"
         width="18"
         height="197"
         transform="rotate(30,129.57,-13.4256)"
         fill="#ff7800"
         id="rect5" />
      <rect
         x="145.159"
         y="-4.4256301"
         width="24"
         height="197"
         transform="rotate(30,145.159,-4.42563)"
         fill="#ed333b"
         id="rect6" />
    </g>
    <g
       mask="url(#mask0_4023_558)"
       id="g10">
      <path
         d="m 12,100 h 24 v 16 H 12 Z"
         fill="url(#paint0_linear_4023_558)"
         id="path7"
         style="fill:url(#paint0_linear_4023_558)" />
      <path
         d="m 12,100 h 5 v 16 h -5 z"
         fill="url(#paint1_linear_4023_558)"
         id="path8"
         style="fill:url(#paint1_linear_4023_558)" />
      <rect
         x="36"
         y="100"
         width="21"
         height="16"
         fill="#ca9005"
         id="rect8" />
      <rect
         x="57"
         y="100"
         width="21"
         height="16"
         fill="#c64600"
         id="rect9" />
      <rect
         x="78"
         y="100"
         width="22"
         height="16"
         fill="url(#paint2_linear_4023_558)"
         id="rect10"
         style="fill:url(#paint2_linear_4023_558)" />
    </g>
    <rect
       opacity="0.2"
       x="24.5"
       y="110.5"
       width="63"
       height="1"
       stroke="url(#paint3_linear_4023_558)"
       id="rect11"
       style="stroke:url(#paint3_linear_4023_558)" />
    <path
       d="m 85,4 c 22.644,0 41,18.3563 41,41 v 4 c 0,22.6437 -18.356,41 -41,41 -8.3322,0 -16.0825,-2.4875 -22.5526,-6.7576 -0.4653,-0.3071 -1.0341,-0.4203 -1.5783,-0.2987 l -8.8369,1.9749 C 52.0134,84.9228 52,84.9395 52,84.9588 52,84.9816 51.9816,85 51.9588,85 h -0.4617 c -0.0787,0.0036 -0.1564,0.004 -0.2334,0 H 51 c -1.1046,0 -2,-0.8954 -2,-2 v -0.2617 c -0.0043,-0.0811 -0.0042,-0.1632 0,-0.2461 V 78.9749 C 49,78.7126 49.2126,78.5 49.4749,78.5 c 0.2224,0 0.4151,-0.1543 0.4635,-0.3714 l 1.117,-4.9987 C 51.177,72.5857 51.0638,72.017 50.7567,71.5517 46.487,65.0818 44,57.3317 44,49 V 45 C 44,22.3563 62.3563,4 85,4 Z"
       fill="url(#paint4_linear_4023_558)"
       id="path11"
       style="fill:url(#paint4_linear_4023_558)" />
    <path
       d="m 85,4 c 22.644,0 41,18.3563 41,41 0,22.6437 -18.356,41 -41,41 -8.6457,0 -16.6648,-2.6781 -23.2773,-7.2471 l -9.8018,2.1914 c -1.7167,0.3836 -3.2488,-1.1485 -2.8652,-2.8652 l 2.1904,-9.8027 C 46.6776,61.6641 44,53.6452 44,45 44,22.3563 62.3563,4 85,4 Z"
       fill="#ffffff"
       id="path12" />
    <path
       d="m 97.2297,43.8668 c 0.4642,0.683 0.4609,1.5812 -0.0083,2.2608 L 86.1666,62.1365 C 85.7932,62.6772 85.178,63 84.5209,63 H 79.737 c -1.5974,0 -2.5502,-1.7803 -1.6641,-3.1094 l 9.1875,-13.7812 c 0.4478,-0.6718 0.4478,-1.547 0,-2.2188 L 78.0729,30.1094 C 77.1868,28.7803 78.1396,27 79.737,27 h 4.9687 c 0.6623,0 1.2817,0.3279 1.654,0.8757 z"
       fill="url(#paint5_radial_4023_558)"
       id="path13"
       style="fill:url(#paint5_radial_4023_558)" />
    <g
       mask="url(#mask1_4023_558)"
       id="g14">
      <rect
         x="73"
         y="27"
         width="17"
         height="4"
         fill="#2779dd"
         id="rect14" />
    </g>
  </g>
  <defs
     id="defs35">
    <linearGradient
       id="paint0_linear_4023_558"
       x1="34"
       y1="108"
       x2="12"
       y2="108"
       gradientUnits="userSpaceOnUse">
      <stop
         offset="0.401381"
         stop-color="#26A269"
         id="stop14" />
      <stop
         offset="0.801049"
         stop-color="#8AEB52"
         id="stop15" />
      <stop
         offset="1"
         stop-color="#26A269"
         id="stop16" />
    </linearGradient>
    <linearGradient
       id="paint1_linear_4023_558"
       x1="12"
       y1="108"
       x2="17"
       y2="108"
       gradientUnits="userSpaceOnUse">
      <stop
         stop-color="#1A5FB4"
         id="stop17" />
      <stop
         offset="1"
         stop-color="#35E0F6"
         id="stop18" />
    </linearGradient>
    <linearGradient
       id="paint2_linear_4023_558"
       x1="100"
       y1="108"
       x2="78"
       y2="108"
       gradientUnits="userSpaceOnUse">
      <stop
         stop-color="#A51D2D"
         id="stop19" />
      <stop
         offset="0.195858"
         stop-color="#E5673C"
         id="stop20" />
      <stop
         offset="0.5983"
         stop-color="#A51D2D"
         id="stop21" />
    </linearGradient>
    <linearGradient
       id="paint3_linear_4023_558"
       x1="88"
       y1="111.329"
       x2="24"
       y2="111.329"
       gradientUnits="userSpaceOnUse">
      <stop
         offset="0.102371"
         stop-color="white"
         stop-opacity="0"
         id="stop22" />
      <stop
         offset="0.253808"
         stop-color="white"
         id="stop23" />
      <stop
         offset="0.747697"
         stop-color="white"
         id="stop24" />
      <stop
         offset="0.895556"
         stop-color="white"
         stop-opacity="0"
         id="stop25" />
    </linearGradient>
    <linearGradient
       id="paint4_linear_4023_558"
       x1="44"
       y1="48.036098"
       x2="126"
       y2="48.036098"
       gradientUnits="userSpaceOnUse">
      <stop
         stop-color="#DBEBF4"
         id="stop26" />
      <stop
         offset="0.147387"
         stop-color="#B1D4E7"
         id="stop27" />
      <stop
         offset="0.186621"
         stop-color="#8DC0DC"
         id="stop28" />
      <stop
         offset="0.203755"
         stop-color="#49AEE7"
         id="stop29" />
      <stop
         offset="0.276122"
         stop-color="#7AB5D7"
         id="stop30" />
      <stop
         offset="0.399628"
         stop-color="#B3D6E7"
         id="stop31" />
      <stop
         offset="0.507537"
         stop-color="#B3D6E7"
         id="stop32" />
      <stop
         offset="1"
         stop-color="#DBEBF4"
         id="stop33" />
    </linearGradient>
    <radialGradient
       id="paint5_radial_4023_558"
       cx="0"
       cy="0"
       r="1"
       gradientTransform="matrix(3.5,24.5214,-15.8099,2.26053,101,33.9904)"
       gradientUnits="userSpaceOnUse">
      <stop
         stop-color="#72AAEE"
         id="stop34" />
      <stop
         offset="1"
         stop-color="#3584E4"
         id="stop35" />
    </radialGradient>
    <clipPath
       id="clip0_4023_558">
      <rect
         x="12"
         y="36"
         width="88"
         height="80"
         rx="12"
         fill="#ffffff"
         id="rect35" />
    </clipPath>
  </defs>
</svg>

<svg width="128" height="128" viewBox="0 0 128 128" fill="none" xmlns="http://www.w3.org/2000/svg">
<g clip-path="url(#clip0_4023_558)">
<rect x="62.0205" y="-52.4256" width="24" height="197" transform="rotate(30 62.0205 -52.4256)" fill="#9141AC"/>
<rect x="82.8051" y="-40.4256" width="18" height="197" transform="rotate(30 82.8051 -40.4256)" fill="#62A0EA"/>
<rect x="98.3936" y="-31.4256" width="18" height="197" transform="rotate(30 98.3936 -31.4256)" fill="#57E389"/>
<rect x="113.982" y="-22.4256" width="18" height="197" transform="rotate(30 113.982 -22.4256)" fill="#F5C211"/>
<rect x="129.57" y="-13.4256" width="18" height="197" transform="rotate(30 129.57 -13.4256)" fill="#FF7800"/>
<rect x="145.159" y="-4.42563" width="24" height="197" transform="rotate(30 145.159 -4.42563)" fill="#ED333B"/>
</g>
<mask id="mask0_4023_558" style="mask-type:alpha" maskUnits="userSpaceOnUse" x="12" y="100" width="88" height="16">
<path d="M100 104C100 110.627 94.6274 116 88 116H24C17.3726 116 12 110.627 12 104V100C12 106.627 17.3726 112 24 112H88C94.6274 112 100 106.627 100 100V104Z" fill="#D9D9D9"/>
</mask>
<g mask="url(#mask0_4023_558)">
<path d="M12 100H36V116H12V100Z" fill="url(#paint0_linear_4023_558)"/>
<path d="M12 100H17V116H12V100Z" fill="url(#paint1_linear_4023_558)"/>
<rect x="36" y="100" width="21" height="16" fill="#CA9005"/>
<rect x="57" y="100" width="21" height="16" fill="#C64600"/>
<rect x="78" y="100" width="22" height="16" fill="url(#paint2_linear_4023_558)"/>
</g>
<rect opacity="0.2" x="24.5" y="110.5" width="63" height="1" stroke="url(#paint3_linear_4023_558)"/>
<path d="M85 4C107.644 4 126 22.3563 126 45V49C126 71.6437 107.644 90 85 90C76.6678 90 68.9175 87.5125 62.4474 83.2424C61.9821 82.9353 61.4133 82.8221 60.8691 82.9437L52.0322 84.9186C52.0134 84.9228 52 84.9395 52 84.9588C52 84.9816 51.9816 85 51.9588 85H51.4971C51.4184 85.0036 51.3407 85.004 51.2637 85H51C49.8954 85 49 84.1046 49 83V82.7383C48.9957 82.6572 48.9958 82.5751 49 82.4922V78.9749C49 78.7126 49.2126 78.5 49.4749 78.5C49.6973 78.5 49.89 78.3457 49.9384 78.1286L51.0554 73.1299C51.177 72.5857 51.0638 72.017 50.7567 71.5517C46.487 65.0818 44 57.3317 44 49V45C44 22.3563 62.3563 4 85 4Z" fill="url(#paint4_linear_4023_558)"/>
<path d="M85 4C107.644 4 126 22.3563 126 45C126 67.6437 107.644 86 85 86C76.3543 86 68.3352 83.3219 61.7227 78.7529L51.9209 80.9443C50.2042 81.3279 48.6721 79.7958 49.0557 78.0791L51.2461 68.2764C46.6776 61.6641 44 53.6452 44 45C44 22.3563 62.3563 4 85 4Z" fill="white"/>
<path d="M97.2297 43.8668C97.6939 44.5498 97.6906 45.448 97.2214 46.1276L86.1666 62.1365C85.7932 62.6772 85.178 63 84.5209 63H79.737C78.1396 63 77.1868 61.2197 78.0729 59.8906L87.2604 46.1094C87.7082 45.4376 87.7082 44.5624 87.2604 43.8906L78.0729 30.1094C77.1868 28.7803 78.1396 27 79.737 27H84.7057C85.368 27 85.9874 27.3279 86.3597 27.8757L97.2297 43.8668Z" fill="url(#paint5_radial_4023_558)"/>
<mask id="mask1_4023_558" style="mask-type:alpha" maskUnits="userSpaceOnUse" x="77" y="27" width="21" height="36">
<path d="M97.4223 44.1501C97.7705 44.6623 97.768 45.336 97.416 45.8457L86.0175 62.3523C85.7375 62.7579 85.2761 63 84.7832 63H78.8028C77.6047 63 76.8901 61.6648 77.5547 60.6679L87.4453 45.8321C87.7812 45.3282 87.7812 44.6718 87.4453 44.1679L78.0729 30.1094C77.1869 28.7803 78.1396 27 79.737 27H84.9704C85.4671 27 85.9317 27.2459 86.2109 27.6567L97.4223 44.1501Z" fill="#2779DD"/>
</mask>
<g mask="url(#mask1_4023_558)">
<rect x="73" y="27" width="17" height="4" fill="#2779DD"/>
</g>
<defs>
<linearGradient id="paint0_linear_4023_558" x1="34" y1="108" x2="12" y2="108" gradientUnits="userSpaceOnUse">
<stop offset="0.401381" stop-color="#26A269"/>
<stop offset="0.801049" stop-color="#8AEB52"/>
<stop offset="1" stop-color="#26A269"/>
</linearGradient>
<linearGradient id="paint1_linear_4023_558" x1="12" y1="108" x2="17" y2="108" gradientUnits="userSpaceOnUse">
<stop stop-color="#1A5FB4"/>
<stop offset="1" stop-color="#35E0F6"/>
</linearGradient>
<linearGradient id="paint2_linear_4023_558" x1="100" y1="108" x2="78" y2="108" gradientUnits="userSpaceOnUse">
<stop stop-color="#A51D2D"/>
<stop offset="0.195858" stop-color="#E5673C"/>
<stop offset="0.5983" stop-color="#A51D2D"/>
</linearGradient>
<linearGradient id="paint3_linear_4023_558" x1="88" y1="111.329" x2="24" y2="111.329" gradientUnits="userSpaceOnUse">
<stop offset="0.102371" stop-color="white" stop-opacity="0"/>
<stop offset="0.253808" stop-color="white"/>
<stop offset="0.747697" stop-color="white"/>
<stop offset="0.895556" stop-color="white" stop-opacity="0"/>
</linearGradient>
<linearGradient id="paint4_linear_4023_558" x1="44" y1="48.0361" x2="126" y2="48.0361" gradientUnits="userSpaceOnUse">
<stop stop-color="#DBEBF4"/>
<stop offset="0.147387" stop-color="#B1D4E7"/>
<stop offset="0.186621" stop-color="#8DC0DC"/>
<stop offset="0.203755" stop-color="#49AEE7"/>
<stop offset="0.276122" stop-color="#7AB5D7"/>
<stop offset="0.399628" stop-color="#B3D6E7"/>
<stop offset="0.507537" stop-color="#B3D6E7"/>
<stop offset="1" stop-color="#DBEBF4"/>
</linearGradient>
<radialGradient id="paint5_radial_4023_558" cx="0" cy="0" r="1" gradientTransform="matrix(3.5 24.5214 -15.8099 2.26053 101 33.9904)" gradientUnits="userSpaceOnUse">
<stop stop-color="#72AAEE"/>
<stop offset="1" stop-color="#3584E4"/>
</radialGradient>
<clipPath id="clip0_4023_558">
<rect x="12" y="36" width="88" height="80" rx="12" fill="white"/>
</clipPath>
</defs>
</svg>
